public/avatar/item2/11.svg

<svg xmlns:xlink="http://www.w3.org/1999/xlink" height="99.2" width="82.2" xmlns="http://www.w3.org/2000/svg"><use height="23.1" transform="translate(14.6 65.8)" width="32.5" xlink:href="#a"/><defs><g id="a" fill-rule="evenodd"><path d="m13.7 22.8.05.05L15 20.8l-.15.15.15-.35-.65.75-1.3.95.2.15-1.85 2-.05-.05-1.95 1.75-1.15.75.1.15q-1.65.9-3.8 1.4l-.05-.1-3.3.65-3.65.15-2.3-.3v-.05L-8 27.5l-3.55-2.55-4.05-4.2.75 1.45.9 1.45-.05.1 2.15 2.5.15-.15q1.95 1.85 4.45 2.85l.1.05.2.05q2.85 1.1 6.25 1.1l1.3-.05v.15L1.75 30q3.15-.4 5.85-1.8l.8-1 .6-.4 1-.15.5-.35 1.4-1.25-.05-.05 1.85-2.2m-27.75 7.4q-1.25-1.95-1.65-4.75l.1-3.15-.8-1.75v-1.5l4.95 4.75Q-5.5 28.5-.5 28.5q8 0 15.85-9.1l.25 1.25-.2.55.7 1.1q-1 6.05-2.6 8.95.4 2.35-1.9 3.4l-3.1-.1-.35.8q1.9 2-.65 3.65-2 1.25-3 .35l-1.75.75q.1 2.05-3 2.05-3.15 0-3-2.1l-1.95-1q-1.5 1.05-2.8-.8-1.1-1.6-.2-2.6l-.7-1.35-.2-.4-.75-.35.3-.5q1.85.8 3.6 1l.1.65.25.75-.1-.05-.6-.05-.2-.25-.35-.1q-.35 0-.7.5l-.2.25-.2.3q-.35.6-.05.9l.4.85q.8 1.65 2 .9l.45-.35.55-.6q.25-.45.2-.85l-.15-.45.65.2v.65l1.35.8q.75-1 2.2-1 1.7 0 2.5 1.15l1.45-.9q-.15-1.3.95-2.45l.45-.35-.6-.1q-2.05.85-3.75.85l-1.1-.3v-.5l.45.05 2.85-.3-3.35-.35-.15-.45v-.1l.2-.1-.25-.05q-.35-.95-1.1-1.55 5.3 2.4 9.75 2.25l-.6-1.3-6.45-.55-3.15-1.15-2.5-.55 1.35.55-1.35.2-.4.25-1.55-.8-4-2.5 4.3 3.6.7.4-.15.55-1.7-.85.3.65 1.4.3-.05.35q-1.65-.3-3.35-.95l.05-.6v-.1l.05.2 1 .5-.35-.8-.8-.6q-.3-.95-1.2-1.6-.3-.2-.65-.25l-1.5-1.7-1.8-2.6.15.45q.95 2.35 2.15 3.95l-.8.4-.7-1.15-.65-1.35-.9-3.2-.05 1.45.55 2.1-.15.15 1 2.3.1-.1.15.25-.45.4m8.2 4.5-.4-.05.05.05h.35m17.4-7.3 1 1.55q1.15-2.2 2-6.15-1.2 2.2-2.95 4.35l-.15.2.1.05m.2 1.45-.75-1-.5-.3-.25-.05-1.25.35q-.6.35-.75 1.4l-.05 1 .15 1.5.05.35h-.05l.1.35v.05l.05.3h.1l.25.65v.05l.2.3.55.45 1.3-.1 1.4-1.35.15-.65-.05-1.35v-.05l-.05-.2-.2-.65-.05-.15-.3-.8-.05-.1m-.85-1.95.1.05.35-.45-.45.4m-4.35 3.7q-1.25 1-2.4 1.2l1.35.1 1.5-.75-.1-.6.05-.25-.4.3M5.7 35h-.2q-.45-.05-.9.6-.55.75-.45 1.2v.05q-.05.5.25 1.15l.15.2.2.35.15.25.2.15q1.15.65 2.2-.3l.3-.3q.55-.55.6-1.15l-.05-.8-.25-.35-.1-.15-.45-.6q-.35-.35-.75-.4l-.9.1m-3.45-3.5q2.15-.65 3.3-1.4 1.1-.75-2 .3l-2.3.9 1 .2m4.6.7.25-.7-.05-.15-1.4.8 1.2.05m-2.9 6.35-.05-.15-1.35.6.15.65v.05l1.55-.6-.3-.55m-6.2 2.35h-.05q1.45 1.4 3.15.6l.5-.35.45-.35.4-.5.1-.5-.25-.7-.55-.65-.3-.25.05.15Q.7 38-.2 37.8q-1.25-.2-1.85.5l-.35.6-.05.1q-.35.4-.2.65l.05.05.05.55.3.65m-6.2-6.8.75 1.15.15-.1.65-.3-.2-.35-1.35-.4m4.2 3.95-.5.6q.75.5 1.6.8l.2-.65-1.3-.75" fill="#1d1d24" transform="translate(16.4 -19.05)"/><path d="M13.7 22.8 11.85 25l-.45-.55 1.85-2 .45.35m-5.3 4.4-.8 1Q4.9 29.6 1.75 30l3-.65-.2-.9q2.15-.5 3.8-1.4l.05.15M.6 30.1l-1.3.05q-3.4 0-6.25-1.1l2.2.6v-.8l2.3.3L1.2 29l-.6.1v1m-7.85-1.15q-2.5-1-4.45-2.85l.55-.7-2.5-2.5-.3.75-.9-1.45-.75-1.45 4.05 4.2L-8 27.5l-.5.8 1.25.65m21.6-7.6.65-.75-.15.35-.5.4M-9.3 30.7l.8.6.35.8-1-.5-.05-.2-.1-.7m13.25 7.85.3.55-1.55.6v-.05L2.55 39l1.35-.6.05.15m-12.4-4.45 1.35.4.2.35-.65.3-.15.1-.75-1.15m4.2 3.95 1.3.75-.2.65q-.85-.3-1.6-.8l.5-.6" fill="#ff3636" transform="translate(16.4 -19.05)"/><path d="m-3.4 30.9-1.35-.55 2.5.55L.9 32.05l6.45.55.6 1.3q-4.45.15-9.75-2.25l-.25-.2q-.65-.5-1.35-.55" fill="#b2ff00" transform="translate(16.4 -19.05)"/><path d="m-13.6 29.8-.15-.25.4-.65-.3-.7.7 1.15-.65.45m-1.1-2.6-.55-2.1.05-1.45.9 3.2-.05-.1-.35.45m5.45 4.9q1.7.65 3.35.95l-.05.95v.05q-1.75-.2-3.6-1l.3-.95m8.55 1.1.25.05-.2.1-.05-.15m2.95-1.7-1-.2 2.3-.9q3.1-1.05 2-.3-1.15.75-3.3 1.4" fill="#17edff" transform="translate(16.4 -19.05)"/><path d="m10.9 26.9.45-.4-.35.45-.1-.05m-4.35 3.7.4-.3-.05.25.1.6-1.5.75-1.35-.1q1.15-.2 2.4-1.2" fill="#ffb700" transform="translate(16.4 -19.05)"/><path d="m-5.7 32.05-.7-.4-4.3-3.6 4 2.5 1.55.8-.55.7m5.2 1.85 3.35.35-2.85.3-.45-.05-.05-.6" fill="#ff36dd" transform="translate(16.4 -19.05)"/><path d="m14.85 20.95.15-.15-1.25 2.05-.05-.05-.45-.35-.2-.15 1.3-.95.5-.4m-3 4.05.05.05-1.4 1.25-.5.35-1 .15-.6.4-.05-.15-.1-.15 1.15-.75 1.95-1.75.05.05.45.55m-10.1 5-1.15.25V29.1l.6-.1 3.3-.65.05.1.2.9-3 .65m-8.7-.95-.2-.05-.1-.05-1.25-.65.5-.8 3.25 1.3v.85l-2.2-.6m-4.75-2.95-.15.15-2.15-2.5.05-.1.3-.75 2.5 2.5-.55.7" fill="#ffe100" transform="translate(16.4 -19.05)"/><path d="m-13.75 29.55-.1.1-1-2.3.15-.15.35-.45.05.1.65 1.35.3.7-.4.65m8.55 4.25-.05-.7.15-.8.7-.65.4-.1.75.15q.9.3 1.55 1.25l.05.1.3.5.05.05.1.5v.25l-.1.45-.75.9-.2-1.15-.2-.65v-.05l-.3-.7-.05-.05q-.4-.65-.9-.45l-.4.5V34l.05.1.15.5.05.1.7 1.35-.35.05q-.95-.25-1.4-1.35l-.2-.65-.1-.3m-4.9-3.15.1 1.1-.25.9v.1l-.25.5q-.7 1.1-2.15.75l.9-1.5.25-.55.15-.95-.35-.4-.2-.05-.7.45-.35.55-.15.25-.5 1.5-.25-.25q-.45-1 .35-2.1l.4-.5.1-.15.45-.4q.4-.35.8-.4.7-.15 1.3.45l.35.7" fill="#fff" transform="translate(16.4 -19.05)"/><path d="m8.45 32.1-.15-1.15 2.1-1.05 1.35-1.05.05.1.55 1.6.05.2v.05l-.05.05-1.15 1.35-.65.35-1.95.25h-.1l-.05-.3v-.4" fill="#fff200" transform="translate(16.4 -19.05)"/><path d="m8.4 32.1-.05-.35-.15-1.5.05-1q.15-1.05.75-1.4l1.25-.35.25.05.5.3.75 1-1.35 1.05-2.1 1.05.15 1.15H8.4m3.4-3.15.3.8.05.15.2.65-.55-1.6m.6 1.85.05 1.35-.1-1.3.05-.05" fill="red" transform="translate(16.4 -19.05)"/><path d="M8.4 32.1h.05v.35l-.1-.35h.05m4.05.05-.15.65-1.4 1.35-1.3.1-.55-.45-.2-.3v-.05l-.25-.65 1.95-.25.65-.35 1.15-1.35.1 1.3" fill="#006e21" transform="translate(16.4 -19.05)"/><path d="M-8 36.95q-.3-.3.05-.9l.2-.3.2-.25q.35-.5.7-.5l.35.1.2.25q.15.25.05.65l-.25.5-.2.3-.45.35-.65-.05-.2-.15M5.7 35l.3.2.3.4q.15.55-.6 1.15l-.2.15-1.25.15-.1-.2v-.05q-.1-.45.45-1.2.45-.65.9-.6h.2m-8.1 3.9.25-.3.25-.25q.7-.6 1.2-.2l.3.5q.05.3-.35.7l-.15.1-.8.4-.75-.05-.15-.1-.05-.05q-.15-.25.2-.65l.05-.1" fill="#eda680" transform="translate(16.4 -19.05)"/><path d="m-7.6 37.8-.4-.85.2.15.65.05.45-.35.2-.3.25-.5q.1-.4-.05-.65l.6.05.1.05.45.65-.3 1.7-.15.2-.5.3q-.7.2-1.5-.5m11.75-.95.1.2 1.25-.15.2-.15q.75-.6.6-1.15l-.3-.4-.3-.2.9-.1q.4.05.75.4l.45.6.1.15-.5-.65.15.9q0 .85-.55 1.6-.5.6-1.3.55l-.4-.05q-.4-.1-.85-.35L4.4 38q-.3-.65-.25-1.15m-2.9 1.5.05.15.15.75-.1.7-.5.55-.1.05-3 .35-.3-.65-.05-.55.15.1.75.05.8-.4.15-.1q.4-.4.35-.7l-.3-.5q-.5-.4-1.2.2l-.25.25-.25.3.35-.6q.6-.7 1.85-.5.9.2 1.45.55" fill="#7d3d1b" transform="translate(16.4 -19.05)"/><path d="m-4.55 36.45.15.45q.05.4-.2.85l-.55.6-.45.35q-1.2.75-2-.9.8.7 1.5.5l.5-.3.15-.2.3-1.7.6.35M4.4 38l.05.05q.45.25.85.35l.4.05q.8.05 1.3-.55.55-.75.55-1.6l-.15-.9.5.65.25.35.05.8q-.05.6-.6 1.15l-.3.3q-1.05.95-2.2.3l-.2-.15-.15-.25-.2-.35-.15-.2m-6.65 2.9 3-.35.1-.05.5-.55.1-.7-.15-.75-.05-.15-.05-.15.3.25.55.65.25.7-.1.5-.4.5-.45.35-.5.35q-1.7.8-3.15-.6h.05m4.05-.1-.95.7.95-.7" fill="#4f2711" transform="translate(16.4 -19.05)"/><path d="m-14.05 30.2.45-.4.65-.45.8-.4 1-.1q.35.05.65.25.9.65 1.2 1.6l.1.7v.1l-.05.6-.3.95-.3.5-.2.25q-1.5 1.9-3.15.85.25-.75.1-.9l-1.1-.2q-1.3-1.9.15-3.35m8.15 2.85.05-.35v-.1l.15-.55.55-.7.4-.25 1.35-.2q.7.05 1.35.55l.25.2q.75.6 1.1 1.55l.05.15v.1l.15.45.05.6v.5q-.2 1.05-1.35 1.5l-.65-.6q-.5.8-.8.8l-.65-.05-.65-.2-.6-.35-.45-.65-.25-.75-.1-.65V34l.05-.95m.7.75.1.3.2.65q.45 1.1 1.4 1.35l.35-.05-.7-1.35-.05-.1-.15-.5-.05-.1v-.85l.4-.5q.5-.2.9.45l.05.05.3.7v.05l.2.65.2 1.15.75-.9.1-.45v-.25l-.1-.5-.05-.05-.3-.5-.05-.1q-.65-.95-1.55-1.25l-.75-.15-.4.1-.7.65-.15.8.05.7m-4.9-3.15-.35-.7q-.6-.6-1.3-.45-.4.05-.8.4l-.45.4-.1.15-.4.5q-.8 1.1-.35 2.1l.25.25.5-1.5.15-.25.35-.55.7-.45.2.05.35.4-.15.95-.25.55-.9 1.5q1.45.35 2.15-.75l.25-.5v-.1l.25-.9-.1-1.1" fill="#242424" transform="translate(16.4 -19.05)"/></g></defs></svg>

<?xml version="1.0" encoding="UTF-8" standalone="no"?>
<svg xmlns:xlink="http://www.w3.org/1999/xlink" height="99.2px" width="82.2px" xmlns="http://www.w3.org/2000/svg">
  <g transform="matrix(1.0, 0.0, 0.0, 1.0, 31.0, 46.75)">
    <use height="23.1" transform="matrix(1.0, 0.0, 0.0, 1.0, -16.4, 19.05)" width="32.5" xlink:href="#shape0"/>
  </g>
  <defs>
    <g id="shape0" transform="matrix(1.0, 0.0, 0.0, 1.0, 16.4, -19.05)">
      <path d="M13.7 22.8 L13.75 22.85 15.0 20.8 14.85 20.95 15.0 20.6 14.35 21.35 13.05 22.3 13.25 22.45 11.4 24.45 11.35 24.4 9.4 26.15 8.25 26.9 8.35 27.05 Q6.7 27.95 4.55 28.45 L4.5 28.35 1.2 29.0 -2.45 29.15 -4.75 28.85 -4.75 28.8 -8.0 27.5 -11.55 24.95 -15.6 20.75 -14.85 22.2 -13.95 23.65 -14.0 23.75 -11.85 26.25 -11.7 26.1 Q-9.75 27.95 -7.25 28.95 L-7.15 29.0 -6.95 29.05 Q-4.1 30.15 -0.7 30.15 L0.6 30.1 0.6 30.25 1.75 30.0 Q4.9 29.6 7.6 28.2 L8.4 27.2 9.0 26.8 10.0 26.65 10.5 26.3 11.9 25.05 11.85 25.0 13.7 22.8 M-14.05 30.2 Q-15.3 28.25 -15.7 25.45 L-15.6 22.3 -16.4 20.55 -16.4 19.05 -11.45 23.8 Q-5.5 28.5 -0.5 28.5 7.5 28.5 15.35 19.4 L15.6 20.65 15.4 21.2 16.1 22.3 Q15.1 28.35 13.5 31.25 13.9 33.6 11.6 34.65 L8.5 34.55 8.15 35.35 Q10.05 37.35 7.5 39.0 5.5 40.25 4.5 39.35 L2.75 40.1 Q2.85 42.15 -0.25 42.15 -3.4 42.15 -3.25 40.05 L-5.2 39.05 Q-6.7 40.1 -8.0 38.25 -9.1 36.65 -8.2 35.65 L-8.9 34.3 -9.1 33.9 -9.85 33.55 -9.55 33.05 Q-7.7 33.85 -5.95 34.05 L-5.85 34.7 -5.6 35.45 -5.7 35.4 -6.3 35.35 -6.5 35.1 -6.85 35.0 Q-7.2 35.0 -7.55 35.5 L-7.75 35.75 -7.95 36.05 Q-8.3 36.65 -8.0 36.95 L-7.6 37.8 Q-6.8 39.45 -5.6 38.7 L-5.15 38.35 -4.6 37.75 Q-4.35 37.3 -4.4 36.9 L-4.55 36.45 -3.9 36.65 -3.9 37.3 -2.55 38.1 Q-1.8 37.1 -0.35 37.1 1.35 37.1 2.15 38.25 L3.6 37.35 Q3.45 36.05 4.55 34.9 L5.0 34.55 4.4 34.45 Q2.35 35.3 0.65 35.3 L-0.45 35.0 -0.45 34.5 0.0 34.55 2.85 34.25 -0.5 33.9 -0.65 33.45 -0.65 33.35 -0.45 33.25 -0.7 33.2 Q-1.05 32.25 -1.8 31.65 3.5 34.05 7.95 33.9 L7.35 32.6 0.9 32.05 -2.25 30.9 -4.75 30.35 -3.4 30.9 -4.75 31.1 -5.15 31.35 -6.7 30.55 -10.7 28.05 -6.4 31.65 -5.7 32.05 -5.85 32.6 -7.55 31.75 -7.25 32.4 -5.85 32.7 -5.9 33.05 Q-7.55 32.75 -9.25 32.1 L-9.2 31.5 -9.2 31.4 -9.15 31.6 -8.15 32.1 -8.5 31.3 -9.3 30.7 Q-9.6 29.75 -10.5 29.1 -10.8 28.9 -11.15 28.85 L-12.65 27.15 -14.45 24.55 -14.3 25.0 Q-13.35 27.35 -12.15 28.95 L-12.95 29.35 -13.65 28.2 -14.3 26.85 -15.2 23.65 -15.25 25.1 -14.7 27.2 -14.85 27.35 -13.85 29.65 -13.75 29.55 -13.6 29.8 -14.05 30.2 M-5.85 34.7 L-6.25 34.65 -6.2 34.7 -5.85 34.7 M11.55 27.4 L12.55 28.95 Q13.7 26.75 14.55 22.8 13.35 25.0 11.6 27.15 L11.45 27.35 11.55 27.4 M11.75 28.85 L11.0 27.85 10.5 27.55 10.25 27.5 9.0 27.85 Q8.4 28.2 8.25 29.25 L8.2 30.25 8.35 31.75 8.4 32.1 8.35 32.1 8.45 32.45 8.45 32.5 8.5 32.8 8.6 32.8 8.85 33.45 8.85 33.5 9.05 33.8 9.6 34.25 10.9 34.15 12.3 32.8 12.45 32.15 12.4 30.8 12.4 30.75 12.35 30.55 12.15 29.9 12.1 29.75 11.8 28.95 11.75 28.85 M10.9 26.9 L11.0 26.95 11.35 26.5 10.9 26.9 M6.55 30.6 Q5.3 31.6 4.15 31.8 L5.5 31.9 7.0 31.15 6.9 30.55 6.95 30.3 6.55 30.6 M5.7 35.0 L5.5 35.0 Q5.05 34.95 4.6 35.6 4.05 36.35 4.15 36.8 L4.15 36.85 Q4.1 37.35 4.4 38.0 L4.55 38.2 4.75 38.55 4.9 38.8 5.1 38.95 Q6.25 39.6 7.3 38.65 L7.6 38.35 Q8.15 37.8 8.2 37.2 L8.15 36.4 7.9 36.05 7.8 35.9 7.35 35.3 Q7.0 34.95 6.6 34.9 L5.7 35.0 M2.25 31.5 Q4.4 30.85 5.55 30.1 6.65 29.35 3.55 30.4 L1.25 31.3 2.25 31.5 M6.85 32.2 L7.1 31.5 7.05 31.35 5.65 32.15 6.85 32.2 M3.95 38.55 L3.9 38.4 2.55 39.0 2.7 39.65 2.7 39.7 4.25 39.1 3.95 38.55 M-2.25 40.9 L-2.3 40.9 Q-0.85 42.3 0.85 41.5 L1.35 41.15 1.8 40.8 2.2 40.3 2.3 39.8 2.05 39.1 1.5 38.45 1.2 38.2 1.25 38.35 Q0.7 38.0 -0.2 37.8 -1.45 37.6 -2.05 38.3 L-2.4 38.9 -2.45 39.0 Q-2.8 39.4 -2.65 39.65 L-2.6 39.7 -2.55 40.25 -2.25 40.9 M-8.45 34.1 L-7.7 35.25 -7.55 35.15 -6.9 34.85 -7.1 34.5 -8.45 34.1 M-4.25 38.05 L-4.75 38.65 Q-4.0 39.15 -3.15 39.45 L-2.95 38.8 -4.25 38.05" fill="#1d1d24" fill-rule="evenodd" stroke="none"/>
      <path d="M13.7 22.8 L11.85 25.0 11.4 24.45 13.25 22.45 13.7 22.8 M8.4 27.2 L7.6 28.2 Q4.9 29.6 1.75 30.0 L4.75 29.35 4.55 28.45 Q6.7 27.95 8.35 27.05 L8.4 27.2 M0.6 30.1 L-0.7 30.15 Q-4.1 30.15 -6.95 29.05 L-4.75 29.65 -4.75 28.85 -2.45 29.15 1.2 29.0 0.6 29.1 0.6 30.1 M-7.25 28.95 Q-9.75 27.95 -11.7 26.1 L-11.15 25.4 -13.65 22.9 -13.95 23.65 -14.85 22.2 -15.6 20.75 -11.55 24.95 -8.0 27.5 -8.5 28.3 -7.25 28.95 M14.35 21.35 L15.0 20.6 14.85 20.95 14.35 21.35 M-9.3 30.7 L-8.5 31.3 -8.15 32.1 -9.15 31.6 -9.2 31.4 -9.3 30.7 M3.95 38.55 L4.25 39.1 2.7 39.7 2.7 39.65 2.55 39.0 3.9 38.4 3.95 38.55 M-8.45 34.1 L-7.1 34.5 -6.9 34.85 -7.55 35.15 -7.7 35.25 -8.45 34.1 M-4.25 38.05 L-2.95 38.8 -3.15 39.45 Q-4.0 39.15 -4.75 38.65 L-4.25 38.05" fill="#ff3636" fill-rule="evenodd" stroke="none"/>
      <path d="M-3.4 30.9 L-4.75 30.35 -2.25 30.9 0.9 32.05 7.35 32.6 7.95 33.9 Q3.5 34.05 -1.8 31.65 L-2.05 31.45 Q-2.7 30.95 -3.4 30.9" fill="#b2ff00" fill-rule="evenodd" stroke="none"/>
      <path d="M-13.6 29.8 L-13.75 29.55 -13.35 28.9 -13.65 28.2 -12.95 29.35 -13.6 29.8 M-14.7 27.2 L-15.25 25.1 -15.2 23.65 -14.3 26.85 -14.35 26.75 -14.7 27.2 M-9.25 32.1 Q-7.55 32.75 -5.9 33.05 L-5.95 34.0 -5.95 34.05 Q-7.7 33.85 -9.55 33.05 L-9.25 32.1 M-0.7 33.2 L-0.45 33.25 -0.65 33.35 -0.7 33.2 M2.25 31.5 L1.25 31.3 3.55 30.4 Q6.65 29.35 5.55 30.1 4.4 30.85 2.25 31.5" fill="#17edff" fill-rule="evenodd" stroke="none"/>
      <path d="M10.9 26.9 L11.35 26.5 11.0 26.95 10.9 26.9 M6.55 30.6 L6.95 30.3 6.9 30.55 7.0 31.15 5.5 31.9 4.15 31.8 Q5.3 31.6 6.55 30.6" fill="#ffb700" fill-rule="evenodd" stroke="none"/>
      <path d="M-5.7 32.05 L-6.4 31.65 -10.7 28.05 -6.7 30.55 -5.15 31.35 -5.7 32.05 M-0.5 33.9 L2.85 34.25 0.0 34.55 -0.45 34.5 -0.5 33.9" fill="#ff36dd" fill-rule="evenodd" stroke="none"/>
      <path d="M14.85 20.95 L15.0 20.8 13.75 22.85 13.7 22.8 13.25 22.45 13.05 22.3 14.35 21.35 14.85 20.95 M11.85 25.0 L11.9 25.05 10.5 26.3 10.0 26.65 9.0 26.8 8.4 27.2 8.35 27.05 8.25 26.9 9.4 26.15 11.35 24.4 11.4 24.45 11.85 25.0 M1.75 30.0 L0.6 30.25 0.6 30.1 0.6 29.1 1.2 29.0 4.5 28.35 4.55 28.45 4.75 29.35 1.75 30.0 M-6.95 29.05 L-7.15 29.0 -7.25 28.95 -8.5 28.3 -8.0 27.5 -4.75 28.8 -4.75 28.85 -4.75 29.65 -6.95 29.05 M-11.7 26.1 L-11.85 26.25 -14.0 23.75 -13.95 23.65 -13.65 22.9 -11.15 25.4 -11.7 26.1" fill="#ffe100" fill-rule="evenodd" stroke="none"/>
      <path d="M-13.75 29.55 L-13.85 29.65 -14.85 27.35 -14.7 27.2 -14.35 26.75 -14.3 26.85 -13.65 28.2 -13.35 28.9 -13.75 29.55 M-5.2 33.8 L-5.25 33.1 -5.1 32.3 -4.4 31.65 -4.0 31.55 -3.25 31.7 Q-2.35 32.0 -1.7 32.95 L-1.65 33.05 -1.35 33.55 -1.3 33.6 -1.2 34.1 -1.2 34.35 -1.3 34.8 -2.05 35.7 -2.25 34.55 -2.45 33.9 -2.45 33.85 -2.75 33.15 -2.8 33.1 Q-3.2 32.45 -3.7 32.65 L-4.1 33.15 -4.1 33.25 -4.1 34.0 -4.05 34.1 -3.9 34.6 -3.85 34.7 -3.15 36.05 -3.5 36.1 Q-4.45 35.85 -4.9 34.75 L-5.1 34.1 -5.2 33.8 M-10.1 30.65 L-10.0 31.75 -10.25 32.65 -10.25 32.75 -10.5 33.25 Q-11.2 34.35 -12.65 34.0 L-11.75 32.5 -11.5 31.95 -11.35 31.0 -11.7 30.6 -11.9 30.55 -12.6 31.0 -12.95 31.55 -13.1 31.8 -13.6 33.3 -13.85 33.05 Q-14.3 32.05 -13.5 30.95 L-13.1 30.45 -13.0 30.3 -12.55 29.9 Q-12.15 29.55 -11.75 29.5 -11.05 29.35 -10.45 29.95 L-10.1 30.65" fill="#ffffff" fill-rule="evenodd" stroke="none"/>
      <path d="M8.45 32.1 L8.3 30.95 10.4 29.9 11.75 28.85 11.8 28.95 12.35 30.55 12.4 30.75 12.4 30.8 12.35 30.85 11.2 32.2 10.55 32.55 8.6 32.8 8.5 32.8 8.45 32.5 8.45 32.45 8.45 32.1" fill="#fff200" fill-rule="evenodd" stroke="none"/>
      <path d="M8.4 32.1 L8.35 31.75 8.2 30.25 8.25 29.25 Q8.4 28.2 9.0 27.85 L10.25 27.5 10.5 27.55 11.0 27.85 11.75 28.85 10.4 29.9 8.3 30.95 8.45 32.1 8.4 32.1 M11.8 28.95 L12.1 29.75 12.15 29.9 12.35 30.55 11.8 28.95 M12.4 30.8 L12.45 32.15 12.35 30.85 12.4 30.8" fill="#ff0000" fill-rule="evenodd" stroke="none"/>
      <path d="M8.4 32.1 L8.45 32.1 8.45 32.45 8.35 32.1 8.4 32.1 M12.45 32.15 L12.3 32.8 10.9 34.15 9.6 34.25 9.05 33.8 8.85 33.5 8.85 33.45 8.6 32.8 10.55 32.55 11.2 32.2 12.35 30.85 12.45 32.15" fill="#006e21" fill-rule="evenodd" stroke="none"/>
      <path d="M-8.0 36.95 Q-8.3 36.65 -7.95 36.05 L-7.75 35.75 -7.55 35.5 Q-7.2 35.0 -6.85 35.0 L-6.5 35.1 -6.3 35.35 Q-6.15 35.6 -6.25 36.0 L-6.5 36.5 -6.7 36.8 -7.15 37.15 -7.8 37.1 -8.0 36.95 M5.7 35.0 L6.0 35.2 6.3 35.6 Q6.45 36.15 5.7 36.75 L5.5 36.9 4.25 37.05 4.15 36.85 4.15 36.8 Q4.05 36.35 4.6 35.6 5.05 34.95 5.5 35.0 L5.7 35.0 M-2.4 38.9 L-2.15 38.6 -1.9 38.35 Q-1.2 37.75 -0.7 38.15 L-0.4 38.65 Q-0.35 38.95 -0.75 39.35 L-0.9 39.45 -1.7 39.85 -2.45 39.8 -2.6 39.7 -2.65 39.65 Q-2.8 39.4 -2.45 39.0 L-2.4 38.9" fill="#eda680" fill-rule="evenodd" stroke="none"/>
      <path d="M-7.6 37.8 L-8.0 36.95 -7.8 37.1 -7.15 37.15 -6.7 36.8 -6.5 36.5 -6.25 36.0 Q-6.15 35.6 -6.3 35.35 L-5.7 35.4 -5.6 35.45 -5.15 36.1 -5.45 37.8 -5.6 38.0 -6.1 38.3 Q-6.8 38.5 -7.6 37.8 M4.15 36.85 L4.25 37.05 5.5 36.9 5.7 36.75 Q6.45 36.15 6.3 35.6 L6.0 35.2 5.7 35.0 6.6 34.9 Q7.0 34.95 7.35 35.3 L7.8 35.9 7.9 36.05 7.4 35.4 7.55 36.3 Q7.55 37.15 7.0 37.9 6.5 38.5 5.7 38.45 L5.3 38.4 Q4.9 38.3 4.45 38.05 L4.4 38.0 Q4.1 37.35 4.15 36.85 M1.25 38.35 L1.3 38.5 1.45 39.25 1.35 39.95 0.85 40.5 0.75 40.55 -2.25 40.9 -2.55 40.25 -2.6 39.7 -2.45 39.8 -1.7 39.85 -0.9 39.45 -0.75 39.35 Q-0.35 38.95 -0.4 38.65 L-0.7 38.15 Q-1.2 37.75 -1.9 38.35 L-2.15 38.6 -2.4 38.9 -2.05 38.3 Q-1.45 37.6 -0.2 37.8 0.7 38.0 1.25 38.35" fill="#7d3d1b" fill-rule="evenodd" stroke="none"/>
      <path d="M-4.55 36.45 L-4.4 36.9 Q-4.35 37.3 -4.6 37.75 L-5.15 38.35 -5.6 38.7 Q-6.8 39.45 -7.6 37.8 -6.8 38.5 -6.1 38.3 L-5.6 38.0 -5.45 37.8 -5.15 36.1 -4.55 36.45 M4.4 38.0 L4.45 38.05 Q4.9 38.3 5.3 38.4 L5.7 38.45 Q6.5 38.5 7.0 37.9 7.55 37.15 7.55 36.3 L7.4 35.4 7.9 36.05 8.15 36.4 8.2 37.2 Q8.15 37.8 7.6 38.35 L7.3 38.65 Q6.25 39.6 5.1 38.95 L4.9 38.8 4.75 38.55 4.55 38.2 4.4 38.0 M-2.25 40.9 L0.75 40.55 0.85 40.5 1.35 39.95 1.45 39.25 1.3 38.5 1.25 38.35 1.2 38.2 1.5 38.45 2.05 39.1 2.3 39.8 2.2 40.3 1.8 40.8 1.35 41.15 0.85 41.5 Q-0.85 42.3 -2.3 40.9 L-2.25 40.9 M1.8 40.8 L0.85 41.5 1.8 40.8" fill="#4f2711" fill-rule="evenodd" stroke="none"/>
      <path d="M-14.05 30.2 L-13.6 29.8 -12.95 29.35 -12.15 28.95 -11.15 28.85 Q-10.8 28.9 -10.5 29.1 -9.6 29.75 -9.3 30.7 L-9.2 31.4 -9.2 31.5 -9.25 32.1 -9.55 33.05 -9.85 33.55 -10.05 33.8 Q-11.55 35.7 -13.2 34.65 -12.95 33.9 -13.1 33.75 L-14.2 33.55 Q-15.5 31.65 -14.05 30.2 M-5.9 33.05 L-5.85 32.7 -5.85 32.6 -5.7 32.05 -5.15 31.35 -4.75 31.1 -3.4 30.9 Q-2.7 30.95 -2.05 31.45 L-1.8 31.65 Q-1.05 32.25 -0.7 33.2 L-0.65 33.35 -0.65 33.45 -0.5 33.9 -0.45 34.5 -0.45 35.0 Q-0.65 36.05 -1.8 36.5 L-2.45 35.9 Q-2.95 36.7 -3.25 36.7 L-3.9 36.65 -4.55 36.45 -5.15 36.1 -5.6 35.45 -5.85 34.7 -5.95 34.05 -5.95 34.0 -5.9 33.05 M-5.2 33.8 L-5.1 34.1 -4.9 34.75 Q-4.45 35.85 -3.5 36.1 L-3.15 36.05 -3.85 34.7 -3.9 34.6 -4.05 34.1 -4.1 34.0 -4.1 33.25 -4.1 33.15 -3.7 32.65 Q-3.2 32.45 -2.8 33.1 L-2.75 33.15 -2.45 33.85 -2.45 33.9 -2.25 34.55 -2.05 35.7 -1.3 34.8 -1.2 34.35 -1.2 34.1 -1.3 33.6 -1.35 33.55 -1.65 33.05 -1.7 32.95 Q-2.35 32.0 -3.25 31.7 L-4.0 31.55 -4.4 31.65 -5.1 32.3 -5.25 33.1 -5.2 33.8 M-10.1 30.65 L-10.45 29.95 Q-11.05 29.35 -11.75 29.5 -12.15 29.55 -12.55 29.9 L-13.0 30.3 -13.1 30.45 -13.5 30.95 Q-14.3 32.05 -13.85 33.05 L-13.6 33.3 -13.1 31.8 -12.95 31.55 -12.6 31.0 -11.9 30.55 -11.7 30.6 -11.35 31.0 -11.5 31.95 -11.75 32.5 -12.65 34.0 Q-11.2 34.35 -10.5 33.25 L-10.25 32.75 -10.25 32.65 -10.0 31.75 -10.1 30.65" fill="#242424" fill-rule="evenodd" stroke="none"/>
    </g>
  </defs>
</svg>
